rospo-light/small/status/network-wired-acquiring-symbolic.svg

<?xml version="1.0" encoding="UTF-8" standalone="no"?>
<svg
   xmlns:dc="http://purl.org/dc/elements/1.1/"
   xmlns:cc="http://creativecommons.org/ns#"
   xmlns:rdf="http://www.w3.org/1999/02/22-rdf-syntax-ns#"
   xmlns:svg="http://www.w3.org/2000/svg"
   xmlns="http://www.w3.org/2000/svg"
   xmlns:sodipodi="http://sodipodi.sourceforge.net/DTD/sodipodi-0.dtd"
   xmlns:inkscape="http://www.inkscape.org/namespaces/inkscape"
   width="22"
   height="22"
   version="1.1"
   id="svg10"
   sodipodi:docname="network-wired-acquiring-symbolic.svg"
   inkscape:version="0.92.1 r">
  <metadata
     id="metadata16">
    <rdf:RDF>
      <cc:Work
         rdf:about="">
        <dc:format>image/svg+xml</dc:format>
        <dc:type
           rdf:resource="http://purl.org/dc/dcmitype/StillImage" />
      </cc:Work>
    </rdf:RDF>
  </metadata>
  <defs
     id="defs14" />
  <sodipodi:namedview
     pagecolor="#ffffff"
     bordercolor="#666666"
     borderopacity="1"
     objecttolerance="10"
     gridtolerance="10"
     guidetolerance="10"
     inkscape:pageopacity="0"
     inkscape:pageshadow="2"
     inkscape:window-width="769"
     inkscape:window-height="480"
     id="namedview12"
     showgrid="false"
     inkscape:zoom="10.727273"
     inkscape:cx="11"
     inkscape:cy="11"
     inkscape:window-x="0"
     inkscape:window-y="0"
     inkscape:window-maximized="0"
     inkscape:current-layer="svg10" />
  <g
     id="g4497"
     transform="translate(3,3)">
    <circle
       id="circle2"
       r="2"
       cy="8"
       cx="3"
       style="fill:#5c616c" />
    <circle
       id="circle4"
       r="2"
       cy="8"
       cx="8"
       style="fill:#5c616c" />
    <circle
       id="circle6"
       r="2"
       cy="8"
       cx="13"
       style="fill:#5c616c" />
    <path
       id="path8"
       d="M 2,2 C 2,2 1,2 1,3 V 5 H 3 V 4 h 10 v 1 h 2 V 3 C 15,2 14,2 14,2 Z m -1,9 v 1 c 0,1 1,1 1,1 h 2 l 1,1 h 6 l 1,-1 h 2 c 0,0 1,0.13 1,-1 v -1 h -4 l -1,1 H 6 L 5,11 Z"
       style="opacity:0.3;fill:#5c616c"
       inkscape:connector-curvature="0" />
  </g>
</svg>

<svg xmlns="http://www.w3.org/2000/svg" width="16" height="16" version="1.1">
 <circle style="fill:#5c616c" cx="3" cy="8" r="2"/>
 <circle style="fill:#5c616c" cx="8" cy="8" r="2"/>
 <circle style="fill:#5c616c" cx="13" cy="8" r="2"/>
 <path style="fill:#5c616c;opacity:0.3" d="M 2,2 C 2,2 1,2 1,3 V 5 H 3 V 4 H 13 V 5 H 15 V 3 C 15,2 14,2 14,2 Z M 1,11 V 12 C 1,13 2,13 2,13 H 4 L 5,14 H 11 L 12,13 H 14 C 14,13 15,13.13 15,12 V 11 H 11 L 10,12 H 6 L 5,11 Z"/>
</svg>
